logos/appdynamics.svg

<?xml version="1.0" encoding="UTF-8"?>
<svg width="512px" height="68px" viewBox="0 0 512 68" version="1.1" xmlns="http://www.w3.org/2000/svg" preserveAspectRatio="xMidYMid">
    <title>AppDynamics</title>
    <g>
        <path d="M383.515379,46.8715703 C383.515379,48.9707564 382.657029,50.7470687 379.775216,50.782385 L377.29703,50.7829209 L377.29703,50.7829209 L377.29703,17.0225611 L384.626285,17.0225611 L395.12627,31.5733535 L405.751187,17.0225611 L412.881529,17.0225611 L412.881529,46.0633059 C412.881529,49.4120633 411.504411,50.7559757 408.93628,50.782519 L406.550831,50.7829209 L406.550831,50.7829209 L406.550831,26.1250234 L395.615395,40.8922766 L394.236942,40.8922766 L383.515379,26.1250234 L383.515379,46.8715703 L383.515379,46.8715703 Z M297.131693,47.6567221 C297.131693,48.3469142 296.695955,49.147042 296.08913,49.7730838 L296.015507,49.847355 L296.015507,49.847355 L295.940343,49.9198459 C295.371088,50.4565792 294.680402,50.833898 294.061216,50.8447506 L290.895308,50.8449289 L290.895308,50.8449289 L290.895308,17.0225611 L290.895308,17.0225611 L295.761641,17.0225611 L313.835565,39.7621793 L313.835565,21.6243063 L313.835565,21.6243063 C313.835565,18.5958717 315.061478,17.0225611 317.189592,17.0225611 L320.197379,17.0225611 L320.197379,17.0225611 L320.197379,50.8572335 L315.030177,50.8572335 L297.131693,28.3052589 L297.131693,47.6567221 L297.131693,47.6567221 Z M212.896562,50.7601337 L212.896562,17.0258797 L227.004146,17.0258797 L227.004146,17.0258797 C234.556699,17.2986453 240.947304,21.891459 242.520868,30.6379278 L242.567074,30.9042435 C243.08439,33.8538031 242.873462,36.8851044 241.952582,39.7346305 C239.831872,46.2396669 235.264627,49.8094343 228.562382,50.774329 C227.264233,50.9446718 225.955223,51.0184108 224.646213,50.9944027 L212.896562,50.7601337 Z M224.822036,22.8355689 L224.533506,22.8348642 L224.533506,22.8348642 L222.601516,22.8348642 L222.601516,22.8348642 L220.10382,22.8422173 L220.10382,22.8422173 L218.998426,22.8471024 L218.998426,22.8471024 L218.998426,44.4815429 L219.847844,44.5085824 L219.847844,44.5085824 L220.501819,44.5272889 L220.501819,44.5272889 L221.133076,44.5433952 L221.133076,44.5433952 L221.440185,44.5504733 L221.440185,44.5504733 L222.037363,44.5626795 L222.037363,44.5626795 L222.327433,44.5678075 L222.327433,44.5678075 L222.751889,44.5742808 L222.751889,44.5742808 L223.29795,44.5806366 L223.29795,44.5806366 L223.692587,44.5836972 L223.692587,44.5836972 L224.074445,44.5852952 L224.074445,44.5852952 L224.510469,44.5852952 L224.510469,44.5852952 L224.864402,44.5836972 L224.864402,44.5836972 L225.093258,44.5818193 L225.093258,44.5818193 L225.425891,44.5777837 L225.425891,44.5777837 L225.745746,44.5722855 L225.745746,44.5722855 L225.951883,44.5678075 L225.951883,44.5678075 L226.15234,44.5626795 L226.15234,44.5626795 L226.347118,44.5569014 L226.347118,44.5569014 L226.536216,44.5504733 L226.536216,44.5504733 L226.719634,44.5433952 L226.719634,44.5433952 L226.897372,44.5356671 L226.897372,44.5356671 L227.069431,44.5272889 L227.069431,44.5272889 L227.23581,44.5182606 L227.23581,44.5182606 L227.39651,44.5085824 L227.39651,44.5085824 L227.55153,44.4982541 L227.55153,44.4982541 L227.70087,44.4872758 C227.725286,44.4853919 227.749466,44.4834809 227.77341,44.4815429 C230.688433,44.3026308 233.336434,42.7318858 234.892571,40.265696 L234.939392,40.1906894 C236.311438,38.0226046 236.929487,35.4625064 236.697446,32.907322 C236.32891,27.1685307 232.579668,22.9431948 226.516565,22.8471024 L226.263628,22.844172 L226.263628,22.844172 L225.684209,22.8394224 L225.684209,22.8394224 L224.822036,22.8355689 L224.822036,22.8355689 Z M109.171661,17.0225611 L124.357683,50.7829209 L117.384658,50.7829209 L114.539404,44.3230645 L96.9197815,44.3230645 L94.0111136,50.7829209 L87.2761637,50.7829209 L102.255275,17.0225611 L109.171661,17.0225611 Z M105.673845,24.1622529 L99.482244,38.4887909 L111.997402,38.4887909 L105.673845,24.1622529 Z M351.964318,17.0225611 L367.150339,50.7829209 L360.177314,50.7829209 L357.332061,44.3230645 L339.712438,44.3230645 L336.80377,50.7829209 L330.06882,50.7829209 L345.047932,17.0225611 L351.964318,17.0225611 Z M348.466502,24.1622529 L342.2749,38.4887909 L354.790059,38.4887909 L348.466502,24.1622529 Z M134.353713,17.0316741 L139.999419,17.024032 L139.999419,17.024032 L145.957863,17.024032 L145.957863,17.024032 L148.204529,17.0286106 L148.204529,17.0286106 L149.047779,17.0316741 L149.047779,17.0316741 C150.901543,16.988231 152.750734,17.2368857 154.526758,17.769064 C159.092287,19.2507032 162.22991,23.4475378 162.357953,28.2457167 C162.488854,30.4664607 162.022983,32.6820601 161.008929,34.6621521 C159.267203,38.0209917 155.952378,40.2783193 152.188831,40.6687359 C151.183495,40.8139631 150.168612,40.8863422 149.152662,40.8844603 L148.676823,40.8817422 L148.676823,40.8817422 L148.281014,40.8808022 L148.281014,40.8808022 L147.160686,40.8826398 L147.160686,40.8826398 L145.832882,40.8902481 L145.832882,40.8902481 L144.406566,40.902472 L144.406566,40.902472 L142.662306,40.921192 L142.662306,40.921192 L140.702104,40.9456738 L140.702104,40.9456738 L140.702104,47.4483407 C140.702104,50.1568447 139.419011,50.7554789 136.508934,50.8832316 L136.293093,50.8917628 L136.293093,50.8917628 L136.071415,50.8987559 L136.071415,50.8987559 L135.84387,50.9043537 L135.84387,50.9043537 L135.610428,50.9086989 L135.610428,50.9086989 L135.371059,50.911934 L135.371059,50.911934 L135.125732,50.9142019 L135.125732,50.9142019 L134.87442,50.9156451 L134.87442,50.9156451 L134.353713,50.9166285 L134.353713,50.9166285 L134.353713,17.0316741 Z M147.427759,23.0649335 L146.940636,23.0638169 L146.940636,23.0638169 L146.485317,23.0638169 L146.485317,23.0638169 L145.958318,23.0649335 L145.958318,23.0649335 L145.128427,23.0688143 L145.128427,23.0688143 L144.40074,23.0740705 L144.40074,23.0740705 L143.484183,23.0828047 L143.484183,23.0828047 L142.520353,23.0941861 L142.520353,23.0941861 L141.509251,23.1082147 L141.509251,23.1082147 L140.630555,23.1219275 L140.630555,23.1219275 L140.630555,35.2480708 L145.733232,35.2527899 L145.733232,35.2527899 L149.297314,35.2506886 L149.297314,35.2506886 L150.308393,35.2480708 L150.308393,35.2480708 C150.859557,35.2555842 151.409648,35.1836699 151.940955,35.0350113 C154.824503,34.127496 156.571376,31.2031607 156.003575,28.2337449 C155.779782,25.4430414 153.516629,23.2534125 150.720022,23.1219275 L150.490588,23.1134792 L150.490588,23.1134792 L150.249336,23.1056928 L150.249336,23.1056928 L149.820988,23.0941861 L149.820988,23.0941861 L149.263636,23.0828047 L149.263636,23.0828047 L148.865806,23.0766878 L148.865806,23.0766878 L148.338973,23.0706962 L148.338973,23.0706962 L147.779312,23.066543 L147.779312,23.066543 L147.427759,23.0649335 L147.427759,23.0649335 Z M173.620867,17.0316741 L179.266572,17.024032 L179.266572,17.024032 L185.225016,17.024032 L185.225016,17.024032 L187.471682,17.0286106 L187.471682,17.0286106 L188.314932,17.0316741 L188.314932,17.0316741 C190.168696,16.988231 192.017887,17.2368857 193.793911,17.769064 C198.35944,19.2507032 201.497063,23.4475378 201.625106,28.2457167 C201.756007,30.4664607 201.290136,32.6820601 200.276082,34.6621521 C198.534356,38.0209917 195.219531,40.2783193 191.455985,40.6687359 C190.450648,40.8139631 189.435765,40.8863422 188.419815,40.8844603 L187.943976,40.8817422 L187.943976,40.8817422 L187.548167,40.8808022 L187.548167,40.8808022 L186.427839,40.8826398 L186.427839,40.8826398 L185.100035,40.8902481 L185.100035,40.8902481 L183.67372,40.902472 L183.67372,40.902472 L181.929459,40.921192 L181.929459,40.921192 L179.969257,40.9456738 L179.969257,40.9456738 L179.969257,47.4483407 C179.969257,50.1568447 178.686164,50.7554789 175.776088,50.8832316 L175.560247,50.8917628 L175.560247,50.8917628 L175.338568,50.8987559 L175.338568,50.8987559 L175.111023,50.9043537 L175.111023,50.9043537 L174.877581,50.9086989 L174.877581,50.9086989 L174.638212,50.911934 L174.638212,50.911934 L174.392886,50.9142019 L174.392886,50.9142019 L174.141573,50.9156451 L174.141573,50.9156451 L173.620867,50.9166285 L173.620867,50.9166285 L173.620867,17.0316741 Z M186.694912,23.0649335 L186.207789,23.0638169 L186.207789,23.0638169 L185.75247,23.0638169 L185.75247,23.0638169 L185.225471,23.0649335 L185.225471,23.0649335 L184.39558,23.0688143 L184.39558,23.0688143 L183.667893,23.0740705 L183.667893,23.0740705 L182.751336,23.0828047 L182.751336,23.0828047 L181.787506,23.0941861 L181.787506,23.0941861 L180.776404,23.1082147 L180.776404,23.1082147 L179.897709,23.1219275 L179.897709,23.1219275 L179.897709,35.2480708 L185.000385,35.2527899 L185.000385,35.2527899 L188.564467,35.2506886 L188.564467,35.2506886 L189.575546,35.2480708 L189.575546,35.2480708 C190.12671,35.2555842 190.676801,35.1836699 191.208108,35.0350113 C194.091656,34.127496 195.838529,31.2031607 195.270728,28.2337449 C195.046935,25.4430414 192.783782,23.2534125 189.987175,23.1219275 L189.757741,23.1134792 L189.757741,23.1134792 L189.51649,23.1056928 L189.51649,23.1056928 L189.088141,23.0941861 L189.088141,23.0941861 L188.530789,23.0828047 L188.530789,23.0828047 L188.132959,23.0766878 L188.132959,23.0766878 L187.606126,23.0706962 L187.606126,23.0706962 L187.046466,23.066543 L187.046466,23.066543 L186.694912,23.0649335 L186.694912,23.0649335 Z M264.846609,30.9116207 L273.956116,17.0225611 L281.578667,17.0225611 L268.083631,36.7612059 C268.061953,37.3370476 268.061953,37.9557459 268.083631,38.6173009 C268.110495,40.3997162 268.108251,42.1707993 268.099833,43.945415 L268.083631,46.9938473 C268.083631,49.1425332 266.655981,50.8448627 264.561273,50.8786944 L261.732827,50.8792076 L261.732827,50.8792076 L261.732827,36.7612059 L249.867969,18.7854374 L249.867969,18.7854374 C249.793807,18.6711134 249.711659,18.5619339 249.646625,18.4418937 L249.587053,18.3302421 L249.587053,18.3302421 L249.494788,18.1626104 L249.494788,18.1626104 L249.357965,17.9202872 L249.357965,17.9202872 L249.222192,17.6840468 L249.222192,17.6840468 L249.033158,17.3593932 L249.033158,17.3593932 L248.891314,17.1180088 L248.891314,17.1180088 L256.311561,17.0225611 L264.846609,30.9116207 Z M433.323811,46.2081228 C433.323811,49.1876094 432.246001,50.7470819 429.064502,50.7779734 L427.083677,50.7784415 L427.083677,50.7784415 L427.063863,38.9422343 L427.063863,38.9422343 L427.056208,31.7632168 L427.056208,31.7632168 L427.054822,27.7282025 L427.054822,27.7282025 L427.056762,24.5476936 L427.056762,24.5476936 L427.062616,22.0664279 L427.062616,22.0664279 L427.066634,21.2594701 L427.066634,21.2594701 L427.071484,20.6661387 L427.071484,20.6661387 L427.075179,20.3892657 L427.075179,20.3892657 L427.077165,20.2864335 L427.077165,20.2864335 L427.079243,20.2073377 L427.079243,20.2073377 L427.081414,20.1519781 C427.082153,20.137481 427.082908,20.1269399 427.083677,20.1203548 C427.083677,18.2826531 428.550501,17.0474531 430.587753,17.0229329 L433.323811,17.0225611 L433.323811,17.0225611 L433.323811,46.2081228 Z M512,42.3287134 C511.883447,42.8426552 511.78521,43.3614534 511.647567,43.8697063 C510.748169,47.1900702 508.481358,49.2366797 505.390908,50.4854585 C502.212627,51.7696192 498.887407,51.9284916 495.522365,51.6634731 C493.465071,51.5014093 491.461475,51.0800159 489.575819,50.2076746 C486.555024,48.8102912 484.54005,46.488534 483.274621,43.3489656 L488.532812,40.6438334 L488.532812,40.6438334 C489.492012,42.8837261 491.105157,44.3872557 493.293017,45.2799937 C495.253045,46.0799059 497.295769,46.3307717 499.398158,46.1284695 C500.786938,45.9948502 502.135897,45.7106836 503.35193,44.9899996 C505.037365,43.9911153 505.853372,42.528518 505.662587,40.5525338 C505.564072,39.5331141 505.077603,38.724183 504.279356,38.0968798 C503.089432,37.1617989 501.705735,36.7371178 500.275932,36.4317098 L500.085031,36.3916612 L500.085031,36.3916612 L499.893661,36.3528202 L499.893661,36.3528202 L499.701901,36.3149807 L499.701901,36.3149807 L499.413698,36.2596488 L499.413698,36.2596488 C499.050595,36.1908411 498.686989,36.1239971 498.323139,36.0580861 L497.595192,35.9272026 L497.595192,35.9272026 L496.867056,35.7969748 C495.289554,35.5142014 493.71396,35.2231416 492.161346,34.8399261 C490.24683,34.3673328 488.493961,33.464882 487.121692,31.9662088 C483.73986,28.2730151 484.246032,22.0477144 488.194809,18.9565708 C490.173568,17.407669 492.475483,16.6305123 494.929334,16.2728066 C498.247061,15.7892517 501.512756,16.0175007 504.68396,17.1525018 C507.127404,18.027202 509.095479,19.5258752 510.496193,21.7287208 C510.565431,21.8375958 510.631462,21.9485059 510.69775,22.0637892 L510.777641,22.2043781 L510.777641,22.2043781 L511.032093,22.6603137 L511.032093,22.6603137 L511.126271,22.8266748 L511.126271,22.8266748 L506.184715,25.3264523 L506.184715,25.3264523 C506.051033,25.2040468 505.921442,25.0805312 505.794389,24.9572867 L505.605518,24.7727958 L505.605518,24.7727958 L505.326801,24.4990876 C504.926608,24.1077584 504.532707,23.7375265 504.091762,23.4358014 C501.034058,21.3434032 497.678312,21.1448474 494.226826,22.1734248 C493.448837,22.4054202 492.678479,22.9410075 492.106816,23.5318186 C490.454821,25.2394541 490.832507,27.7834938 492.965698,28.8037461 C493.951073,29.2749981 495.036679,29.561852 496.124477,29.8083058 L496.408236,29.8717763 L496.408236,29.8717763 L497.115529,30.0261617 L497.115529,30.0261617 C498.042716,30.2281324 498.97643,30.4016274 499.910745,30.5719526 L500.711595,30.7177596 C501.912678,30.9370764 503.111956,31.1631053 504.296839,31.4496307 C505.464586,31.7319934 506.597783,32.2832598 507.652585,32.8789273 C510.096722,34.2591053 511.475513,36.4083922 511.875677,39.1837335 C511.885112,39.2488088 511.905578,39.3122537 511.928993,39.375265 L511.983242,39.5168136 C511.989065,39.5325721 511.994693,39.5483596 512,39.5641948 L512,42.3287134 Z M470.867477,25.6090277 C467.644518,22.6957657 463.944248,21.8873896 459.854497,22.6689864 C457.263004,23.1641965 455.118851,24.4394771 453.508065,26.5514394 C449.957648,31.2067477 450.416228,38.578566 454.444372,42.569524 C457.907929,46.001168 465.808952,47.0475058 471.023158,42.210292 L475.530278,46.5454967 L475.530278,46.5454967 C475.484136,46.5771072 475.438967,46.606938 475.394835,46.6355829 L475.203464,46.7584839 C475.080845,46.8377534 474.968441,46.9143658 474.868009,47.0043535 C471.323697,50.1805528 467.115035,51.5231287 462.415604,51.4838616 C460.07345,51.4641586 457.771534,51.155849 455.554258,50.3563531 C451.188667,48.7820594 448.06339,45.872405 446.337023,41.5763287 C444.32524,36.5696973 444.284585,31.4981294 446.359362,26.5030145 C448.564289,21.1944562 452.604782,17.9795448 458.207774,16.8015302 C464.186889,15.5442223 469.59715,16.7123318 474.241993,20.78838 L474.382511,20.9127872 C474.406047,20.9338083 474.429813,20.9545714 474.453575,20.9749684 L474.524616,21.0349529 L474.524616,21.0349529 L474.594233,21.0920918 L474.594233,21.0920918 L474.661024,21.1457365 L474.661024,21.1457365 L474.8523,21.2966083 C474.859222,21.3021428 474.865763,21.30741 474.871894,21.3123964 L470.867477,25.6090277 L470.867477,25.6090277 Z" fill="#000000"></path>
        <path d="M23.5392621,0 C43.9614959,0 60.5169875,16.5554916 60.5169875,36.9777254 C60.5169875,49.6752283 54.1171016,60.8779578 44.3670784,67.5361651 L38.9105559,55.143765 C44.0640074,50.7787696 47.3354344,44.2602889 47.3354344,36.9777254 C47.3354344,23.8354624 36.6815251,13.1815532 23.5392621,13.1815532 C22.5156471,13.1815532 21.5071274,13.2461843 20.5175615,13.3715885 L15.0599736,0.976757143 C17.7828096,0.337919738 20.6215732,0 23.5392621,0 Z M8.61605779,18.61147 L27.1159024,60.8397479 C26.0973456,60.9715841 25.0587638,61.0395746 24.0043021,61.0395746 C10.7470921,61.0395746 0,50.2924825 0,37.0352726 C0,29.6338199 3.34981355,23.0147581 8.61605779,18.61147 Z" fill="#000000"></path>
    </g>
</svg>

<svg preserveAspectRatio="xMidYMid" viewBox="0 0 512 68" xmlns="http://www.w3.org/2000/svg">
  <path d="M383.515 46.872c0 2.099-.858 3.875-3.74 3.91h-2.478v-33.76h7.33l10.5 14.551 10.624-14.55h7.13v29.04c0 3.35-1.377 4.693-3.945 4.72h-2.385V26.125l-10.936 14.767h-1.378l-10.722-14.767v20.747Zm-86.383.785c0 .69-.436 1.49-1.043 2.116l-.073.074-.076.073c-.569.537-1.26.914-1.879.925h-3.166V17.023h4.867l18.074 22.74v-18.14c0-3.028 1.225-4.601 3.354-4.601h3.007v33.834h-5.167l-17.898-22.552v19.352Zm-84.235 3.103V17.026h14.107c7.553.273 13.943 4.865 15.517 13.612l.046.266c.517 2.95.306 5.981-.614 8.83-2.121 6.506-6.688 10.075-13.39 11.04-1.299.17-2.608.244-3.917.22l-11.75-.234Zm11.925-27.924-.288-.001h-1.932l-2.498.007-1.106.005v21.635l.85.027.654.018.631.016.307.007.597.013.29.005.425.006.546.007.395.003.381.001h.436l.354-.001.23-.002.332-.004.32-.006.206-.004.2-.005.195-.006.19-.007.183-.007.177-.007.172-.009.167-.009.16-.01.156-.01.149-.01.072-.006a9.076 9.076 0 0 0 7.12-4.216l.046-.075a11.65 11.65 0 0 0 1.758-7.284c-.368-5.738-4.117-9.964-10.18-10.06l-.253-.003-.58-.005-.862-.003Zm-115.65-5.813 15.186 33.76h-6.973l-2.846-6.46H96.92l-2.908 6.46h-6.735l14.98-33.76h6.916Zm-3.498 7.14-6.192 14.326h12.515l-6.323-14.327Zm246.29-7.14 15.186 33.76h-6.973l-2.845-6.46h-17.62l-2.908 6.46h-6.735l14.979-33.76h6.916Zm-3.497 7.14-6.192 14.326h12.515l-6.323-14.327Zm-214.113-7.131 5.645-.008h5.959l2.247.005.843.003a17.648 17.648 0 0 1 5.479.737 11.333 11.333 0 0 1 7.831 10.477c.13 2.22-.335 4.436-1.35 6.416a11.242 11.242 0 0 1-8.82 6.007c-1.005.145-2.02.217-3.035.215l-.476-.002-.396-.001-1.12.002-1.328.007-1.426.012-1.745.02-1.96.024v6.502c0 2.709-1.283 3.307-4.193 3.435l-.216.009-.222.007-.227.005-.234.005-.239.003-.245.002-.252.002h-.52V17.033Zm13.074 6.033-.487-.001h-.983l-.83.005-.727.005-.917.009-.964.011-1.01.014-.88.014v12.126l5.103.005 3.564-.002 1.011-.003a5.769 5.769 0 0 0 1.633-.213 5.958 5.958 0 0 0 4.063-6.801 5.563 5.563 0 0 0-5.284-5.112l-.23-.009-.24-.007-.429-.012-.557-.011-.398-.006-.527-.006-.56-.004-.351-.002Zm26.193-6.033 5.646-.008h5.958l2.247.005.843.003a17.648 17.648 0 0 1 5.479.737 11.333 11.333 0 0 1 7.831 10.477 12.467 12.467 0 0 1-1.349 6.416 11.242 11.242 0 0 1-8.82 6.007c-1.005.145-2.02.217-3.036.215l-.476-.002-.396-.001-1.12.002-1.328.007-1.426.012-1.745.02-1.96.024v6.502c0 2.709-1.283 3.307-4.193 3.435l-.216.009-.221.007-.228.005-.233.005-.24.003-.245.002-.251.002h-.521V17.033Zm13.074 6.033-.487-.001h-.983l-.83.005-.727.005-.917.009-.963.011-1.012.014-.878.014v12.126l5.102.005 3.564-.002 1.012-.003a5.769 5.769 0 0 0 1.632-.213 5.958 5.958 0 0 0 4.063-6.801 5.563 5.563 0 0 0-5.284-5.112l-.23-.009-.24-.007-.429-.012-.557-.011-.398-.006-.527-.006-.56-.004-.351-.002Zm78.152 7.847 9.11-13.89h7.622l-13.495 19.74a26.463 26.463 0 0 0 0 1.855c.026 1.783.024 3.554.016 5.328l-.016 3.049c0 2.149-1.428 3.85-3.523 3.885h-2.828V36.761l-11.865-17.976c-.074-.114-.156-.223-.221-.343l-.06-.112-.092-.167-.137-.243-.136-.236-.189-.325-.142-.241 7.42-.095 8.536 13.889Zm168.477 15.296c0 2.98-1.078 4.54-4.26 4.57h-1.98l-.02-11.836-.008-7.179-.001-4.035.002-3.18.006-2.482.004-.807.004-.593.004-.277.002-.103.002-.079.002-.055.003-.032c0-1.837 1.467-3.073 3.504-3.097h2.736v29.185ZM512 42.328c-.117.515-.215 1.033-.352 1.542-.9 3.32-3.167 5.367-6.257 6.615-3.178 1.285-6.504 1.443-9.869 1.178-2.057-.162-4.06-.583-5.946-1.455-3.021-1.398-5.036-3.72-6.301-6.859l5.258-2.705c.959 2.24 2.572 3.743 4.76 4.636 1.96.8 4.003 1.05 6.105.848 1.389-.133 2.738-.417 3.954-1.138 1.685-.999 2.501-2.461 2.31-4.437-.098-1.02-.584-1.829-1.383-2.456-1.19-.935-2.573-1.36-4.003-1.665l-.191-.04-.191-.04-.192-.037-.288-.055c-.363-.07-.727-.136-1.09-.202l-.729-.13-.728-.131c-1.577-.283-3.153-.574-4.706-.957-1.914-.473-3.667-1.375-5.04-2.874-3.381-3.693-2.875-9.918 1.074-13.01 1.979-1.548 4.28-2.325 6.734-2.683 3.318-.484 6.584-.255 9.755.88 2.443.874 4.411 2.373 5.812 4.576.07.109.135.22.202.335l.08.14.254.456.094.167-4.941 2.5a18.63 18.63 0 0 1-.39-.37l-.19-.184-.278-.274c-.4-.391-.794-.761-1.235-1.063-3.058-2.093-6.414-2.291-9.865-1.263-.778.232-1.549.768-2.12 1.359-1.652 1.707-1.274 4.251.859 5.272.985.471 2.07.758 3.158 1.004l.284.064.708.154c.927.202 1.86.376 2.795.546l.8.146c1.202.22 2.401.445 3.586.732 1.168.282 2.3.833 3.356 1.429 2.444 1.38 3.823 3.53 4.223 6.305.01.065.03.128.053.191l.054.142.017.047v2.765ZM470.867 25.61c-3.222-2.913-6.923-3.722-11.013-2.94-2.591.495-4.735 1.77-6.346 3.882-3.55 4.656-3.092 12.028.936 16.019 3.464 3.431 11.365 4.478 16.58-.36l4.506 4.335a6.503 6.503 0 0 1-.135.09l-.192.123c-.122.08-.235.156-.335.246-3.544 3.177-7.753 4.52-12.452 4.48-2.343-.02-4.644-.328-6.862-1.128-4.365-1.574-7.49-4.484-9.217-8.78-2.012-5.006-2.052-10.078.022-15.073 2.205-5.309 6.246-8.523 11.849-9.701 5.979-1.258 11.39-.09 16.034 3.986l.14.125.072.062.07.06.07.057.067.054.191.15.02.016-4.005 4.297Z"/>
  <path d="M23.54 0c20.42 0 36.976 16.555 36.976 36.978 0 12.697-6.4 23.9-16.15 30.558L38.91 55.144c5.153-4.365 8.424-10.884 8.424-18.166 0-13.143-10.653-23.796-23.796-23.796-1.023 0-2.032.064-3.021.19L15.06.977A37.085 37.085 0 0 1 23.54 0ZM8.615 18.611l18.5 42.229c-1.019.132-2.057.2-3.112.2C10.747 61.04 0 50.292 0 37.035c0-7.401 3.35-14.02 8.616-18.424Z"/>
</svg>
